X: 3299
T: Mrs CASEY
%R: jig
B: James Kerr "Merry Melodies" v.3 p.32 #299
Z: 2016 John Chambers <jc:trillian.mit.edu>
M: 6/8
L: 1/8
K: Am
e |\
c2A ABA | G2G GAG | A2A ABA | f3 (e2d) |\
c2A ABA | G2G GAG | A2A ABA | c3 e2 :|
|: G |\
c2d e2f | g2a g2e | c2d e2f | g3 efg |\
a2f g2e | f2d e2d | c2A ABA | f3 e2 :|

%%sep 1 1 500
%%sep 1 1 500

